X: 105
T: The Honest Man
N:"Moderate" "collected by J.O'Neill"
B:O'Neill's 105
Z:Transcribed by henrik.norbeck@mailbox.swipnet.se
M:3/4
L:1/8
K:D
D/E/ (.F/.G/.A/.B/)|=c2 (d>c) (Bc/B/)|A>F DD/E/ (.F/.G/.A/{c}.B/)|A2 G>F (.D.D)|D3 D/E/ (.F/.G/.A/.B/)|
=c2 (d>c) (Bc/B/)|A>F DD/E/ (.F/.G/.A/.B/)|"p"A2 G>F "pp"DD|D3||
(FG) (Ad/e/)|f2 (ge/>c/) dd|d>c (AF/G/) (Ad/e/)|f2 {a}(gf) (e>d)|{cde}Hd3 =c Bc/B/|
A2 (AB/c/) dA|G>F DD/E/ (.F/.G/.A/{c}.B/)|A2 G>F DD|D3||


